_inc/systems/logos/auto-neverplayed.svg

<?xml version="1.0" encoding="utf-8"?>
<svg version="1.1" id="neverplayed" x="0px" y="0px" viewBox="0 0 200 40" xmlns="http://www.w3.org/2000/svg">
  <path d="M 58.858 1.587 C 59.102 1.178 59.294 0.802 59.531 0.458 C 59.941 -0.143 60.561 -0.162 60.924 0.458 C 62.014 2.3 63.083 4.149 64.126 6.011 C 64.476 6.638 64.14 7.186 63.4 7.199 C 61.287 7.225 59.175 7.225 57.062 7.199 C 56.29 7.192 55.999 6.651 56.349 5.951 C 56.534 5.575 56.758 5.218 57.016 4.763 C 56.415 4.578 55.88 4.38 55.332 4.241 C 46.254 1.931 36.932 7.932 35.302 17.129 C 33.631 26.537 40.26 35.357 49.701 36.294 C 62.113 37.529 71.257 25.025 66.345 13.57 C 66.14 13.088 66.034 12.494 66.1 11.979 C 66.186 11.239 66.919 10.691 67.678 10.658 C 68.497 10.625 69.111 10.995 69.454 11.741 C 70.458 13.894 71.045 16.158 71.217 18.522 C 71.956 28.557 65.216 37.549 55.431 39.576 C 45.607 41.616 35.757 36.143 32.562 26.603 C 29.96 18.832 31.552 11.741 37.381 5.964 C 43.184 0.214 50.216 -1.172 58.006 1.29 C 58.27 1.363 58.515 1.462 58.858 1.587 Z" style="fill: rgb(255, 255, 255);"/>
  <path d="M 48.75 16.277 C 48.75 14.64 48.743 13.009 48.75 11.372 C 48.757 10.487 49.192 9.965 49.899 9.965 C 50.605 9.972 51.021 10.48 51.021 11.385 C 51.028 14.29 51.041 17.188 51.008 20.086 C 51.001 20.614 51.186 20.885 51.629 21.136 C 54.804 22.912 57.967 24.714 61.129 26.51 C 61.287 26.603 61.459 26.682 61.611 26.787 C 62.212 27.197 62.39 27.798 62.073 28.359 C 61.756 28.913 61.129 29.105 60.495 28.781 C 59.795 28.418 59.115 28.009 58.429 27.619 C 55.517 25.969 52.612 24.298 49.688 22.674 C 49.001 22.291 48.717 21.809 48.737 21.024 C 48.776 19.446 48.75 17.861 48.75 16.277 Z" style="fill: rgb(255, 255, 255);"/>
  <path d="M 88.567 19.267 L 85.507 12.607 C 85.427 12.467 85.387 12.272 85.387 12.022 C 85.387 11.772 85.407 11.487 85.447 11.167 L 85.207 11.167 L 83.797 19.267 L 78.097 19.267 L 81.397 0.517 L 86.767 0.517 L 89.827 7.177 C 89.887 7.317 89.917 7.512 89.917 7.762 C 89.917 8.012 89.897 8.297 89.857 8.617 L 90.097 8.617 L 91.537 0.517 L 97.237 0.517 L 93.937 19.267 Z M 110.377 12.187 L 104.677 12.187 L 104.287 14.467 L 111.277 14.467 L 110.437 19.267 L 97.747 19.267 L 101.047 0.517 L 113.587 0.517 L 112.027 5.317 L 105.877 5.317 L 105.457 7.837 L 111.157 7.837 Z M 126.337 0.517 L 132.367 0.517 L 124.657 19.267 L 116.317 19.267 L 115.207 0.517 L 121.537 0.517 L 121.537 12.427 L 121.807 12.427 Z M 143.737 12.187 L 138.037 12.187 L 137.647 14.467 L 144.637 14.467 L 143.797 19.267 L 131.107 19.267 L 134.407 0.517 L 146.947 0.517 L 145.387 5.317 L 139.237 5.317 L 138.817 7.837 L 144.517 7.837 Z M 162.546 19.267 L 156.276 19.267 L 154.896 13.687 L 153.666 13.687 L 152.706 19.267 L 147.006 19.267 L 150.306 0.517 L 159.306 0.517 C 162.726 0.517 164.436 2.047 164.436 5.107 C 164.436 6.367 164.246 7.567 163.866 8.707 C 163.166 10.867 162.066 12.307 160.566 13.027 Z M 155.136 5.317 L 154.476 9.067 L 155.796 9.067 C 156.476 9.067 156.991 8.992 157.341 8.842 C 157.691 8.692 157.931 8.262 158.061 7.552 C 158.191 6.842 158.256 6.407 158.256 6.247 C 158.256 5.847 158.101 5.592 157.791 5.482 C 157.481 5.372 156.976 5.317 156.276 5.317 Z" style="white-space: pre; fill: rgb(255, 255, 255);"/>
  <path d="M 84.708 35.157 L 80.988 35.157 L 80.208 39.687 L 74.508 39.687 L 77.808 20.937 L 86.808 20.937 C 90.208 20.937 91.908 22.517 91.908 25.677 C 91.908 27.177 91.698 28.532 91.278 29.742 C 90.858 30.952 90.393 31.912 89.883 32.622 C 89.373 33.332 88.673 33.932 87.783 34.422 C 86.893 34.912 85.868 35.157 84.708 35.157 Z M 82.638 25.737 L 81.828 30.357 L 83.148 30.357 C 83.828 30.357 84.343 30.282 84.693 30.132 C 85.043 29.982 85.268 29.637 85.368 29.097 C 85.628 27.617 85.758 26.807 85.758 26.667 C 85.758 26.287 85.608 26.037 85.308 25.917 C 85.008 25.797 84.558 25.737 83.958 25.737 Z M 103.098 39.687 L 91.698 39.687 L 94.998 20.937 L 100.698 20.937 L 98.238 34.887 L 103.938 34.887 Z M 107.238 39.687 L 101.238 39.687 L 109.128 20.937 L 117.948 20.937 L 119.268 39.687 L 113.238 39.687 L 113.118 36.717 L 108.408 36.717 Z M 112.368 26.697 L 110.268 31.947 L 112.668 31.947 L 112.668 26.697 Z M 126.857 20.937 L 127.247 27.537 L 127.457 27.537 L 130.217 20.937 L 136.517 20.937 L 128.957 34.587 L 128.087 39.687 L 122.387 39.687 L 123.257 34.587 L 120.557 20.937 Z M 146.957 32.607 L 141.257 32.607 L 140.867 34.887 L 147.857 34.887 L 147.017 39.687 L 134.327 39.687 L 137.627 20.937 L 150.167 20.937 L 148.607 25.737 L 142.457 25.737 L 142.037 28.257 L 147.737 28.257 Z M 150.227 39.687 L 153.527 20.937 L 161.507 20.937 C 164.087 20.937 165.922 21.392 167.012 22.302 C 168.102 23.212 168.647 24.687 168.647 26.727 C 168.647 27.767 168.527 28.967 168.287 30.327 C 167.687 33.687 166.662 36.087 165.212 37.527 C 163.762 38.967 161.427 39.687 158.207 39.687 Z M 160.727 25.737 L 158.357 25.737 L 156.767 34.887 L 159.137 34.887 C 159.917 34.887 160.497 34.792 160.877 34.602 C 161.257 34.412 161.507 33.977 161.627 33.297 L 162.677 27.327 C 162.697 27.207 162.707 27.047 162.707 26.847 C 162.707 26.387 162.547 26.087 162.227 25.947 C 161.907 25.807 161.407 25.737 160.727 25.737 Z" style="white-space: pre; fill: rgb(255, 255, 255);"/>
</svg>

<svg xmlns="http://www.w3.org/2000/svg" viewBox="0 0 200 40"><path d="M58.86 1.59c.24-.41.43-.79.67-1.13.41-.6 1.03-.62 1.4 0q1.62 2.76 3.2 5.55c.35.63.01 1.18-.73 1.19q-3.17.03-6.34 0c-.77 0-1.06-.55-.71-1.25.18-.37.4-.73.67-1.19-.6-.18-1.14-.38-1.69-.52A16.37 16.37 0 0 0 35.3 17.13a16.33 16.33 0 1 0 31.05-3.56 3 3 0 0 1-.25-1.6c.09-.73.82-1.28 1.58-1.31q1.25-.05 1.77 1.08 1.5 3.23 1.77 6.78c.74 10.04-6 19.03-15.79 21.06A19.77 19.77 0 0 1 32.56 26.6c-2.6-7.77-1-14.86 4.82-20.64C43.18.21 50.22-1.17 58.01 1.3c.26.07.5.17.85.3" style="fill:#fff"/><path d="M48.75 16.28v-4.9c0-.9.44-1.42 1.15-1.42.7.01 1.12.52 1.12 1.42q.02 4.36-.01 8.7c0 .53.18.8.62 1.06q4.76 2.66 9.5 5.37.25.13.48.28c.6.4.78 1 .46 1.57-.31.55-.94.75-1.58.42q-1.04-.56-2.06-1.16-4.36-2.49-8.74-4.95c-.69-.38-.97-.86-.95-1.65.04-1.57.01-3.16.01-4.74" style="fill:#fff"/><path d="M88.57 19.27 85.5 12.6a1 1 0 0 1-.12-.59q0-.37.06-.85h-.24l-1.41 8.1h-5.7L81.4.52h5.37l3.06 6.66q.09.2.09.58t-.06.86h.24l1.44-8.1h5.7l-3.3 18.75Zm21.8-7.08h-5.7l-.38 2.28h6.99l-.84 4.8h-12.7l3.3-18.75h12.55l-1.56 4.8h-6.15l-.42 2.52h5.7ZM126.35.52h6.03l-7.71 18.75h-8.34L115.2.52h6.33v11.9h.27Zm17.4 11.67h-5.7l-.4 2.28h7l-.84 4.8h-12.7L134.4.52h12.55l-1.56 4.8h-6.15l-.42 2.52h5.7Zm18.8 7.08h-6.26l-1.38-5.58h-1.23l-.96 5.58H147L150.3.52h9q5.13 0 5.13 4.59 0 1.89-.57 3.6-1.05 3.24-3.3 4.32Zm-7.4-13.95-.66 3.75h1.32q1.02 0 1.54-.23.53-.22.72-1.29.2-1.05.2-1.3 0-.6-.47-.77a5 5 0 0 0-1.51-.16ZM84.7 35.16H81l-.78 4.53h-5.7l3.3-18.75h9q5.1 0 5.1 4.74a12.3 12.3 0 0 1-2.03 6.94 6.2 6.2 0 0 1-5.17 2.54m-2.06-9.42-.81 4.62h1.32q1.03 0 1.54-.23.53-.23.68-1.03.39-2.23.39-2.43 0-.57-.45-.75t-1.35-.18Zm20.46 13.95H91.7L95 20.94h5.7l-2.46 13.95h5.7Zm4.14 0h-6l7.89-18.75h8.82l1.32 18.75h-6.03l-.12-2.97h-4.71Zm5.13-13-2.1 5.26h2.4V26.7Zm14.49-5.75.39 6.6h.2l2.77-6.6h6.3l-7.56 13.65-.87 5.1h-5.7l.87-5.1-2.7-13.65Zm20.1 11.67h-5.7l-.4 2.28h7l-.84 4.8h-12.7l3.3-18.75h12.55l-1.56 4.8h-6.15l-.42 2.52h5.7Zm3.27 7.08 3.3-18.75h7.98q3.87 0 5.5 1.36 1.64 1.37 1.64 4.43 0 1.56-.36 3.6-.9 5.04-3.08 7.2-2.17 2.16-7 2.16Zm10.5-13.95h-2.37l-1.6 9.15h2.38q1.17 0 1.74-.29t.75-1.3l1.05-5.97q.03-.18.03-.48 0-.69-.48-.9a4 4 0 0 0-1.5-.21" style="white-space:pre;fill:#fff"/></svg>
